icons/1_Primary/Kyoto Sangyo University.svg

<svg xmlns="http://www.w3.org/2000/svg" width="1024" height="1024" fill="none">
   <g clip-path="url(#a)">
      <path fill="#728DBE" d="M512 1024c282.77 0 512-229.23 512-512S794.77 0 512 0 0 229.23 0 512s229.23 512 512 512Z"/>
      <path fill="#fff" d="M758 748h-81.3L523.31 594.45l-24.91 24.44a87.332 87.332 0 0 1-135.837-25.304 87.34 87.34 0 0 1 23.067-107.993 87.334 87.334 0 0 1 35.61-17.103v62.34a29.788 29.788 0 0 0-4.104 42.221 29.794 29.794 0 0 0 42.274 3.519c2.17-1.49 44.08-42.69 44.08-42.69v-40.7l19.94 19.94 152.22-151.76h81.47l-193 192.48L758 748ZM617.53 357.88l-9.54 6a3.17 3.17 0 0 0-1.36 2.36l-.46 11.27c0 .85-.6 1.07-1.24.55l-8.67-7.21a3.377 3.377 0 0 0-2.69-.56l-10.87 3.06c-.82.24-1.21-.23-.91-1l4.21-10.49a3.208 3.208 0 0 0-.31-2.69l-6.25-9.36c-.47-.71-.17-1.25.69-1.18l11.26.73a3.427 3.427 0 0 0 2.49-1.11l7-8.85c.55-.67 1.15-.54 1.35.29l2.77 10.89a3.255 3.255 0 0 0 1.8 2l10.63 3.9c.77.34.82.94.1 1.4Zm-43.42-10.29a20.005 20.005 0 0 1-7.64-3 2.51 2.51 0 0 1-.57-3.46 2.48 2.48 0 0 1 3.47-.58 12.46 12.46 0 0 0 5.55 2.14c1.51.19 2.89 1.16 2.55 3-.27 1.4-1.63 2.2-3.36 1.89v.01Zm-15.39-12.36a2.328 2.328 0 0 0-.08 1.91l5.1 10.86a.638.638 0 0 1-.244.938.635.635 0 0 1-.356.062l-12 .08a2.44 2.44 0 0 0-1.72.87l-6.86 9.87a.626.626 0 0 1-.58.384.624.624 0 0 1-.58-.384l-6.07-10.38a2.229 2.229 0 0 0-1.63-1l-12-1a.628.628 0 0 1-.577-.335.632.632 0 0 1 .047-.665l5.94-10.43a2.257 2.257 0 0 0 0-1.92L522 323.23a.648.648 0 0 1 .262-.94.658.658 0 0 1 .358-.06l12-.09a2.391 2.391 0 0 0 1.69-.88l6.85-9.85a.634.634 0 0 1 .58-.369.636.636 0 0 1 .58.369l6.07 10.38a2.38 2.38 0 0 0 1.62 1l12 1a.638.638 0 0 1 .53 1l-5.82 10.44Zm-26.38-18.45a2.492 2.492 0 0 1-3.32-1.12c-14.73-29.3-48.9-45.46-49.16-45.63a2.482 2.482 0 0 1 2.84-4.06c1.14.8 35.45 17 50.75 47.48a2.49 2.49 0 0 1-1.12 3.32l.01.01Zm-39.82-94.65-11 6a3.642 3.642 0 0 0-1.116 1.091 3.64 3.64 0 0 0-.554 1.459l-1.26 12.47c-.12.93-.74 1.17-1.41.53l-9.18-8.61a3.667 3.667 0 0 0-2.9-.83l-12.26 2.65c-.94.23-1.33-.32-.95-1.17l5.36-11.35a3.519 3.519 0 0 0-.16-3l-6.29-10.87c-.46-.79-.09-1.36.85-1.24l12.43 1.61a3.781 3.781 0 0 0 2.84-1.1l8.35-9.33c.64-.71 1.28-.53 1.48.4l2.32 12.32a3.65 3.65 0 0 0 1.89 2.38l11.47 5c.9.46.9 1.11.08 1.58l.01.01Zm-36.39 32.56 5.35-8.32c.42-.62.93-.57 1.18.14l3.34 9.29c.163.377.404.716.707.994a2.93 2.93 0 0 0 1.053.616l9.59 2.53c.71.19.81.71.23 1.17l-7.82 6.06c-.31.268-.56.6-.733.972a2.905 2.905 0 0 0-.267 1.188l.57 9.88c0 .74-.44 1-1 .58l-8.18-5.56a2.996 2.996 0 0 0-2.39-.27l-9.19 3.57c-.72.28-1.1-.08-.88-.79l2.77-9.5a2.948 2.948 0 0 0-.5-2.34l-6.26-7.65c-.47-.59-.24-1.1.49-1.11l9.91-.3a3.005 3.005 0 0 0 2.02-1.17l.01.02Zm-7.4 54.3a2.51 2.51 0 0 1-1.22-3.29 107.043 107.043 0 0 0 8.13-24.56 2.482 2.482 0 0 1 4.9.8 109.673 109.673 0 0 1-8.54 25.81 2.473 2.473 0 0 1-1.381 1.305 2.488 2.488 0 0 1-1.899-.055l.01-.01Zm42.4 220.17L453.38 567a18.792 18.792 0 0 1-13.38 5.6c-2.185 0-4.352-.39-6.4-1.15V361.36h57.53v167.8Zm-54.18-265.9c-13.2-1.1-32.94 1.47-41.58 3.58-2.71.67-5 1.23-6.9 1.57-7.74 1.35-21.61 1.06-22.21 1a2.5 2.5 0 0 1 .11-5c.14 0 14 .29 21.25-1 1.69-.29 3.95-.84 6.56-1.48 8.94-2.19 29.18-4.88 43.18-3.71a2.482 2.482 0 0 1 1.4 4.37 2.483 2.483 0 0 1-1.81.58v.09Zm-84.23 8.06a3.761 3.761 0 0 0-.82 2.95l2.64 12.32c.19.92-.33 1.34-1.19 1l-11.4-5.4a3.72 3.72 0 0 0-3 .11L328 288.56c-.82.46-1.39.09-1.27-.85l1.62-12.48a3.732 3.732 0 0 0-1.05-2.88l-9.38-8.41c-.71-.63-.54-1.28.4-1.48l12.4-2.29a3.828 3.828 0 0 0 2.4-1.91l5.11-11.52c.36-.87 1-.9 1.49-.08l6 11.07a3.707 3.707 0 0 0 2.56 1.69l12.53 1.29c.94.11 1.16.73.53 1.43l-8.62 9.18Zm-34.35 80.87 5.18-8.87c.4-.66 1-.62 1.24.09l3.88 9.5a3.108 3.108 0 0 0 1.9 1.6l10.06 2.15c.74.18.89.72.31 1.22l-7.83 6.65a3.007 3.007 0 0 0-1 2.31l1.08 10.16c.06.76-.4 1.07-1.06.67l-8.73-5.4a2.919 2.919 0 0 0-2.47-.18l-9.41 4.15c-.71.31-1.14 0-.95-.8l2.43-10a3.075 3.075 0 0 0-.59-2.41l-6.85-7.66c-.5-.56-.3-1.08.46-1.14l10.23-.79a3.007 3.007 0 0 0 2.11-1.28l.01.03Zm-5.22-81.72a88.17 88.17 0 0 1-38.58-10.33 2.485 2.485 0 1 1 2.49-4.3 84.563 84.563 0 0 0 36.2 9.67 2.49 2.49 0 0 1 2.41 2.56 2.443 2.443 0 0 1-.774 1.709 2.448 2.448 0 0 1-1.756.661l.01.03Zm-34.9 115.3 15.44 2.11a.836.836 0 0 1 .754.483.834.834 0 0 1-.124.887l-8.4 13.15a2.993 2.993 0 0 0-.22 2.47l5.87 14.44a.82.82 0 0 1-.85 1.22l-15.6-.71a2.999 2.999 0 0 0-2.25 1l-9.56 12.33a.818.818 0 0 1-1.222.24.821.821 0 0 1-.268-.38l-7.2-13.83a2.996 2.996 0 0 0-2-1.43l-15.44-2.14a.828.828 0 0 1-.64-1.35l8.41-13.14a3.09 3.09 0 0 0 .25-2.46l-5.91-14.43a.827.827 0 0 1 .026-.917.83.83 0 0 1 .854-.333l15.57.71a3.101 3.101 0 0 0 2.27-1.05l9.55-12.32a.839.839 0 0 1 1.51.15l7.17 13.85a3.004 3.004 0 0 0 2 1.42l.01.03Zm-22 56.71a2.56 2.56 0 0 1-2.19 2.75 2.398 2.398 0 0 1-2.73-2c-.06-.32.91-10.38.91-10.38a2.498 2.498 0 0 1 .893-1.747 2.493 2.493 0 0 1 3.583.42 2.503 2.503 0 0 1 .464 1.907c-.44 3.83-.94 8.64-.92 9.33l-.01-.28Zm-18.4 20.18 11.94-2.09a3.55 3.55 0 0 0 1.354-.65c.4-.31.73-.702.966-1.15l5-11c.39-.82 1-.86 1.47 0l5.67 10.71a3.526 3.526 0 0 0 2.4 1.65l12.07 1.39c.9.08 1.1.71.46 1.36l-8.41 8.72a3.638 3.638 0 0 0-.83 2.82l2.41 11.87c.17.9-.36 1.29-1.16.9l-10.91-5.32a3.48 3.48 0 0 0-2.92.09l-10.55 5.94c-.81.46-1.33.06-1.22-.81l1.71-12a3.613 3.613 0 0 0-1-2.76l-8.89-8.33c-.67-.59-.48-1.22.42-1.37l.02.03Zm39.55 12.63a114.83 114.83 0 0 1 17.67 1.25 2.48 2.48 0 0 1-.81 4.89 113.85 113.85 0 0 0-16.58-1.19 2.444 2.444 0 0 1-1.781-.614 2.444 2.444 0 0 1-.819-1.696 2.488 2.488 0 0 1 .597-1.818 2.484 2.484 0 0 1 1.713-.852l.01.03Zm7.57-94a2.474 2.474 0 0 1-1.767.797 2.48 2.48 0 0 1-1.753-4.287c.37-.37 11.36-9.6 22.81-13.86a2.47 2.47 0 0 1 1.897.069 2.477 2.477 0 0 1 1.447 2.347 2.49 2.49 0 0 1-.79 1.726 2.492 2.492 0 0 1-.824.508c-10.4 3.83-20.93 12.59-20.99 12.66l-.03.04Zm15.8 94.2 10.14-1.49a3.005 3.005 0 0 0 2-1.45l4.53-9.2c.34-.71.9-.71 1.24 0l4.53 9.2a2.991 2.991 0 0 0 2 1.45l10.17 1.48c.75.12.94.65.39 1.19l-7.36 7.17a2.9 2.9 0 0 0-.76 2.36l1.73 10.14c.14.76-.33 1.09-1 .71l-9.09-4.78a2.905 2.905 0 0 0-2.48 0l-9.04 4.73c-.68.38-1.14 0-1-.71l1.75-10.14a3.009 3.009 0 0 0-.78-2.36l-7.35-7.17c-.56-.52-.39-1.05.37-1.17l.01.04Zm28.36-133.52a2.473 2.473 0 0 1-2-2.85c.89-5.44 10.17-48 10.46-49.47a2.48 2.48 0 0 1 2.95-1.9 2.488 2.488 0 0 1 1.561 1.081 2.485 2.485 0 0 1 .339 1.869c-.08.36-9.53 43.9-10.44 49.25a2.469 2.469 0 0 1-1.027 1.59 2.47 2.47 0 0 1-1.853.39l.01.04Zm162 297.56V748h-57.54v-94.84c2.21.15 6.71.25 6.71.25a99.604 99.604 0 0 0 50.82-13.92l.01.04Z"/>
   </g>
   <defs>
      <clipPath id="a">
         <path fill="#fff" d="M0 0h1024v1024H0z"/>
      </clipPath>
   </defs>
</svg>

<svg width="1024" height="1024" viewBox="0 0 1024 1024" fill="none" xmlns="http://www.w3.org/2000/svg">
<g clip-path="url(#clip0_2_2640)">
<path d="M512 1024C794.77 1024 1024 794.77 1024 512C1024 229.23 794.77 0 512 0C229.23 0 0 229.23 0 512C0 794.77 229.23 1024 512 1024Z" fill="#728DBE"/>
<path d="M758 748H676.7L523.31 594.45L498.4 618.89C488.445 627.771 476.587 634.253 463.737 637.839C450.887 641.425 437.387 642.019 424.271 639.576C411.156 637.133 398.775 631.717 388.078 623.745C377.381 615.773 368.653 605.456 362.563 593.586C356.474 581.716 353.185 568.608 352.948 555.27C352.712 541.931 355.535 528.715 361.2 516.637C366.865 504.559 375.223 493.939 385.63 485.593C396.038 477.247 408.22 471.396 421.24 468.49V530.83C418.175 533.317 415.635 536.387 413.767 539.864C411.899 543.341 410.74 547.154 410.358 551.082C409.976 555.011 410.379 558.975 411.543 562.747C412.706 566.518 414.608 570.021 417.136 573.051C419.665 576.081 422.771 578.579 426.273 580.399C429.775 582.218 433.604 583.324 437.537 583.651C441.47 583.979 445.429 583.521 449.184 582.306C452.939 581.09 456.415 579.14 459.41 576.57C461.58 575.08 503.49 533.88 503.49 533.88V493.18L523.43 513.12L675.65 361.36H757.12L564.12 553.84L758 748ZM617.53 357.88L607.99 363.88C607.602 364.148 607.279 364.498 607.044 364.906C606.808 365.315 606.667 365.77 606.63 366.24L606.17 377.51C606.17 378.36 605.57 378.58 604.93 378.06L596.26 370.85C595.876 370.573 595.438 370.38 594.975 370.283C594.511 370.187 594.033 370.189 593.57 370.29L582.7 373.35C581.88 373.59 581.49 373.12 581.79 372.35L586 361.86C586.148 361.416 586.197 360.945 586.144 360.481C586.09 360.016 585.935 359.568 585.69 359.17L579.44 349.81C578.97 349.1 579.27 348.56 580.13 348.63L591.39 349.36C591.859 349.355 592.322 349.254 592.75 349.063C593.178 348.872 593.563 348.595 593.88 348.25L600.88 339.4C601.43 338.73 602.03 338.86 602.23 339.69L605 350.58C605.14 351.023 605.373 351.43 605.683 351.775C605.994 352.12 606.375 352.394 606.8 352.58L617.43 356.48C618.2 356.82 618.25 357.42 617.53 357.88ZM574.11 347.59C571.383 347.129 568.782 346.107 566.47 344.59C565.942 344.202 565.587 343.623 565.481 342.976C565.374 342.33 565.525 341.667 565.9 341.13C566.089 340.863 566.329 340.637 566.606 340.463C566.883 340.289 567.192 340.172 567.514 340.118C567.837 340.064 568.167 340.075 568.485 340.149C568.804 340.223 569.104 340.359 569.37 340.55C571.02 341.701 572.924 342.435 574.92 342.69C576.43 342.88 577.81 343.85 577.47 345.69C577.2 347.09 575.84 347.89 574.11 347.58V347.59ZM558.72 335.23C558.572 335.525 558.489 335.847 558.475 336.176C558.461 336.506 558.518 336.834 558.64 337.14L563.74 348C563.81 348.101 563.849 348.22 563.853 348.343C563.857 348.466 563.826 348.588 563.763 348.694C563.699 348.799 563.607 348.884 563.496 348.938C563.386 348.993 563.262 349.014 563.14 349L551.14 349.08C550.809 349.1 550.486 349.188 550.19 349.337C549.894 349.487 549.632 349.695 549.42 349.95L542.56 359.82C542.512 359.934 542.431 360.031 542.328 360.099C542.225 360.168 542.104 360.204 541.98 360.204C541.856 360.204 541.735 360.168 541.632 360.099C541.529 360.031 541.448 359.934 541.4 359.82L535.33 349.44C535.15 349.162 534.91 348.929 534.628 348.755C534.346 348.582 534.029 348.475 533.7 348.44L521.7 347.44C521.582 347.444 521.466 347.414 521.364 347.355C521.262 347.296 521.178 347.21 521.123 347.105C521.068 347.001 521.043 346.884 521.051 346.766C521.06 346.648 521.101 346.535 521.17 346.44L527.11 336.01C527.251 335.71 527.324 335.382 527.324 335.05C527.324 334.718 527.251 334.39 527.11 334.09L522 323.23C521.933 323.127 521.896 323.006 521.895 322.883C521.894 322.759 521.927 322.638 521.993 322.533C522.058 322.428 522.151 322.344 522.262 322.29C522.373 322.237 522.497 322.216 522.62 322.23L534.62 322.14C534.947 322.117 535.266 322.027 535.556 321.876C535.847 321.724 536.104 321.515 536.31 321.26L543.16 311.41C543.211 311.3 543.293 311.206 543.396 311.141C543.499 311.075 543.618 311.041 543.74 311.041C543.862 311.041 543.981 311.075 544.084 311.141C544.187 311.206 544.269 311.3 544.32 311.41L550.39 321.79C550.577 322.059 550.817 322.286 551.096 322.458C551.375 322.63 551.686 322.743 552.01 322.79L564.01 323.79C564.126 323.79 564.241 323.821 564.34 323.881C564.44 323.941 564.522 324.027 564.576 324.13C564.631 324.233 564.656 324.349 564.65 324.465C564.644 324.581 564.605 324.694 564.54 324.79L558.72 335.23ZM532.34 316.78C531.751 317.068 531.071 317.112 530.45 316.903C529.828 316.693 529.314 316.246 529.02 315.66C514.29 286.36 480.12 270.2 479.86 270.03C479.355 269.641 479.019 269.071 478.922 268.441C478.826 267.81 478.976 267.167 479.342 266.644C479.707 266.121 480.26 265.76 480.886 265.634C481.511 265.509 482.161 265.629 482.7 265.97C483.84 266.77 518.15 282.97 533.45 313.45C533.738 314.039 533.783 314.719 533.573 315.34C533.363 315.962 532.916 316.476 532.33 316.77L532.34 316.78ZM492.52 222.13L481.52 228.13C481.073 228.409 480.693 228.781 480.404 229.221C480.116 229.662 479.927 230.159 479.85 230.68L478.59 243.15C478.47 244.08 477.85 244.32 477.18 243.68L468 235.07C467.603 234.734 467.14 234.485 466.64 234.342C466.139 234.199 465.615 234.164 465.1 234.24L452.84 236.89C451.9 237.12 451.51 236.57 451.89 235.72L457.25 224.37C457.446 223.889 457.533 223.371 457.505 222.852C457.477 222.334 457.336 221.827 457.09 221.37L450.8 210.5C450.34 209.71 450.71 209.14 451.65 209.26L464.08 210.87C464.604 210.894 465.127 210.808 465.616 210.619C466.105 210.429 466.549 210.14 466.92 209.77L475.27 200.44C475.91 199.73 476.55 199.91 476.75 200.84L479.07 213.16C479.195 213.669 479.429 214.146 479.755 214.557C480.081 214.967 480.492 215.303 480.96 215.54L492.43 220.54C493.33 221 493.33 221.65 492.51 222.12L492.52 222.13ZM456.13 254.69L461.48 246.37C461.9 245.75 462.41 245.8 462.66 246.51L466 255.8C466.163 256.177 466.404 256.516 466.707 256.794C467.011 257.071 467.37 257.281 467.76 257.41L477.35 259.94C478.06 260.13 478.16 260.65 477.58 261.11L469.76 267.17C469.45 267.438 469.2 267.77 469.027 268.142C468.855 268.515 468.764 268.92 468.76 269.33L469.33 279.21C469.33 279.95 468.89 280.21 468.33 279.79L460.15 274.23C459.792 274.023 459.395 273.891 458.983 273.845C458.572 273.799 458.155 273.838 457.76 273.96L448.57 277.53C447.85 277.81 447.47 277.45 447.69 276.74L450.46 267.24C450.545 266.837 450.545 266.42 450.459 266.017C450.373 265.614 450.203 265.233 449.96 264.9L443.7 257.25C443.23 256.66 443.46 256.15 444.19 256.14L454.1 255.84C454.498 255.79 454.882 255.66 455.228 255.46C455.575 255.259 455.879 254.99 456.12 254.67L456.13 254.69ZM448.73 308.99C448.137 308.71 447.678 308.208 447.45 307.594C447.222 306.979 447.243 306.299 447.51 305.7C451.203 297.872 453.933 289.625 455.64 281.14C455.693 280.818 455.808 280.51 455.98 280.233C456.151 279.956 456.376 279.715 456.64 279.525C456.905 279.334 457.205 279.198 457.522 279.123C457.839 279.049 458.168 279.037 458.49 279.09C458.812 279.143 459.12 279.258 459.397 279.43C459.674 279.601 459.915 279.826 460.105 280.09C460.296 280.355 460.432 280.655 460.507 280.972C460.581 281.289 460.593 281.618 460.54 281.94C458.775 290.864 455.906 299.534 452 307.75C451.867 308.048 451.677 308.316 451.44 308.54C451.203 308.764 450.924 308.939 450.619 309.055C450.315 309.171 449.99 309.226 449.664 309.217C449.338 309.207 449.017 309.134 448.72 309L448.73 308.99ZM491.13 529.16L453.38 567C451.632 568.773 449.549 570.182 447.252 571.143C444.955 572.104 442.49 572.6 440 572.6C437.815 572.6 435.648 572.21 433.6 571.45V361.36H491.13V529.16ZM436.95 263.26C423.75 262.16 404.01 264.73 395.37 266.84C392.66 267.51 390.37 268.07 388.47 268.41C380.73 269.76 366.86 269.47 366.26 269.41C365.597 269.395 364.967 269.118 364.508 268.639C364.05 268.16 363.8 267.518 363.815 266.855C363.83 266.192 364.107 265.562 364.586 265.103C365.065 264.645 365.707 264.395 366.37 264.41C366.51 264.41 380.37 264.7 387.62 263.41C389.31 263.12 391.57 262.57 394.18 261.93C403.12 259.74 423.36 257.05 437.36 258.22C438.016 258.274 438.624 258.587 439.05 259.09C439.476 259.592 439.684 260.244 439.63 260.9C439.576 261.556 439.263 262.164 438.76 262.59C438.258 263.016 437.606 263.224 436.95 263.17V263.26ZM352.72 271.32C352.384 271.727 352.137 272.2 351.996 272.708C351.855 273.216 351.822 273.748 351.9 274.27L354.54 286.59C354.73 287.51 354.21 287.93 353.35 287.59L341.95 282.19C341.47 281.999 340.955 281.91 340.438 281.929C339.922 281.948 339.415 282.074 338.95 282.3L328 288.56C327.18 289.02 326.61 288.65 326.73 287.71L328.35 275.23C328.389 274.703 328.316 274.174 328.135 273.677C327.954 273.181 327.669 272.728 327.3 272.35L317.92 263.94C317.21 263.31 317.38 262.66 318.32 262.46L330.72 260.17C331.23 260.034 331.706 259.794 332.119 259.465C332.532 259.136 332.873 258.726 333.12 258.26L338.23 246.74C338.59 245.87 339.23 245.84 339.72 246.66L345.72 257.73C346.001 258.178 346.375 258.561 346.817 258.853C347.258 259.144 347.757 259.338 348.28 259.42L360.81 260.71C361.75 260.82 361.97 261.44 361.34 262.14L352.72 271.32ZM318.37 352.19L323.55 343.32C323.95 342.66 324.55 342.7 324.79 343.41L328.67 352.91C328.859 353.293 329.126 353.633 329.453 353.909C329.78 354.184 330.16 354.389 330.57 354.51L340.63 356.66C341.37 356.84 341.52 357.38 340.94 357.88L333.11 364.53C332.786 364.82 332.529 365.176 332.356 365.575C332.183 365.974 332.099 366.406 332.11 366.84L333.19 377C333.25 377.76 332.79 378.07 332.13 377.67L323.4 372.27C323.027 372.061 322.612 371.936 322.185 371.905C321.758 371.874 321.33 371.937 320.93 372.09L311.52 376.24C310.81 376.55 310.38 376.24 310.57 375.44L313 365.44C313.074 365.019 313.06 364.588 312.958 364.173C312.857 363.758 312.67 363.369 312.41 363.03L305.56 355.37C305.06 354.81 305.26 354.29 306.02 354.23L316.25 353.44C316.672 353.388 317.079 353.248 317.443 353.027C317.807 352.806 318.119 352.511 318.36 352.16L318.37 352.19ZM313.15 270.47C299.669 270.023 286.471 266.489 274.57 260.14C274 259.81 273.584 259.267 273.414 258.63C273.245 257.993 273.335 257.315 273.665 256.745C273.995 256.175 274.538 255.759 275.175 255.589C275.812 255.42 276.49 255.51 277.06 255.84C288.252 261.73 300.622 265.034 313.26 265.51C313.919 265.531 314.542 265.812 314.994 266.292C315.446 266.772 315.689 267.411 315.67 268.07C315.66 268.392 315.586 268.708 315.453 269.002C315.321 269.295 315.131 269.559 314.896 269.779C314.661 269.999 314.385 270.171 314.084 270.284C313.783 270.398 313.462 270.451 313.14 270.44L313.15 270.47ZM278.25 385.77L293.69 387.88C293.849 387.88 294.004 387.926 294.138 388.011C294.271 388.097 294.378 388.219 294.444 388.363C294.51 388.507 294.534 388.668 294.512 388.825C294.49 388.982 294.423 389.129 294.32 389.25L285.92 402.4C285.709 402.772 285.581 403.185 285.543 403.611C285.505 404.037 285.559 404.466 285.7 404.87L291.57 419.31C291.649 419.445 291.687 419.6 291.681 419.756C291.674 419.912 291.623 420.063 291.534 420.191C291.445 420.319 291.321 420.419 291.176 420.479C291.032 420.539 290.874 420.557 290.72 420.53L275.12 419.82C274.696 419.818 274.276 419.906 273.888 420.079C273.5 420.251 273.153 420.504 272.87 420.82L263.31 433.15C263.232 433.288 263.116 433.4 262.976 433.473C262.836 433.546 262.677 433.577 262.52 433.562C262.362 433.548 262.212 433.488 262.088 433.39C261.964 433.292 261.871 433.16 261.82 433.01L254.62 419.18C254.407 418.814 254.118 418.497 253.773 418.251C253.429 418.004 253.035 417.834 252.62 417.75L237.18 415.61C237.024 415.609 236.872 415.564 236.74 415.48C236.609 415.396 236.504 415.276 236.437 415.136C236.37 414.995 236.344 414.838 236.363 414.683C236.381 414.528 236.442 414.382 236.54 414.26L244.95 401.12C245.159 400.749 245.289 400.339 245.332 399.916C245.375 399.493 245.33 399.065 245.2 398.66L239.29 384.23C239.204 384.092 239.16 383.931 239.165 383.768C239.17 383.605 239.222 383.447 239.316 383.313C239.41 383.18 239.541 383.077 239.693 383.018C239.845 382.959 240.011 382.946 240.17 382.98L255.74 383.69C256.171 383.682 256.595 383.585 256.986 383.404C257.376 383.223 257.725 382.963 258.01 382.64L267.56 370.32C267.642 370.184 267.761 370.074 267.903 370.003C268.045 369.932 268.204 369.902 268.362 369.918C268.521 369.934 268.671 369.994 268.796 370.091C268.921 370.189 269.016 370.32 269.07 370.47L276.24 384.32C276.455 384.684 276.744 384.999 277.088 385.244C277.433 385.488 277.825 385.658 278.24 385.74L278.25 385.77ZM256.25 442.48C256.305 443.131 256.109 443.779 255.702 444.29C255.295 444.802 254.707 445.138 254.06 445.23C253.749 445.278 253.432 445.265 253.127 445.191C252.821 445.116 252.534 444.982 252.28 444.796C252.026 444.611 251.812 444.377 251.649 444.108C251.486 443.839 251.378 443.541 251.33 443.23C251.27 442.91 252.24 432.85 252.24 432.85C252.263 432.513 252.354 432.185 252.507 431.885C252.661 431.584 252.874 431.318 253.133 431.103C253.393 430.887 253.693 430.726 254.017 430.631C254.34 430.535 254.68 430.506 255.015 430.545C255.35 430.584 255.673 430.691 255.966 430.859C256.258 431.028 256.513 431.253 256.716 431.523C256.918 431.793 257.064 432.101 257.144 432.429C257.224 432.757 257.236 433.097 257.18 433.43C256.74 437.26 256.24 442.07 256.26 442.76L256.25 442.48ZM237.85 462.66L249.79 460.57C250.283 460.452 250.744 460.231 251.144 459.92C251.544 459.61 251.874 459.218 252.11 458.77L257.11 447.77C257.5 446.95 258.11 446.91 258.58 447.77L264.25 458.48C264.509 458.91 264.857 459.28 265.271 459.565C265.685 459.849 266.155 460.042 266.65 460.13L278.72 461.52C279.62 461.6 279.82 462.23 279.18 462.88L270.77 471.6C270.443 471.986 270.2 472.437 270.057 472.922C269.914 473.408 269.874 473.918 269.94 474.42L272.35 486.29C272.52 487.19 271.99 487.58 271.19 487.19L260.28 481.87C259.816 481.673 259.314 481.579 258.81 481.595C258.306 481.61 257.811 481.735 257.36 481.96L246.81 487.9C246 488.36 245.48 487.96 245.59 487.09L247.3 475.09C247.335 474.586 247.265 474.079 247.092 473.604C246.92 473.129 246.65 472.695 246.3 472.33L237.41 464C236.74 463.41 236.93 462.78 237.83 462.63L237.85 462.66ZM277.4 475.29C283.313 475.251 289.221 475.669 295.07 476.54C295.699 476.668 296.254 477.035 296.618 477.564C296.982 478.093 297.126 478.742 297.022 479.375C296.917 480.009 296.57 480.577 296.055 480.96C295.54 481.343 294.897 481.511 294.26 481.43C288.77 480.63 283.228 480.232 277.68 480.24C277.357 480.26 277.034 480.217 276.728 480.111C276.423 480.006 276.141 479.841 275.899 479.626C275.657 479.412 275.461 479.151 275.32 478.86C275.179 478.569 275.098 478.253 275.08 477.93C275.054 477.603 275.094 477.273 275.196 476.961C275.299 476.649 275.462 476.36 275.677 476.112C275.892 475.864 276.154 475.66 276.448 475.514C276.742 475.368 277.062 475.281 277.39 475.26L277.4 475.29ZM284.97 381.29C284.744 381.535 284.471 381.731 284.167 381.868C283.864 382.005 283.536 382.08 283.203 382.087C282.87 382.094 282.539 382.035 282.229 381.911C281.92 381.788 281.638 381.603 281.402 381.369C281.165 381.134 280.978 380.854 280.852 380.546C280.726 380.238 280.664 379.907 280.668 379.574C280.673 379.241 280.744 378.912 280.879 378.607C281.013 378.303 281.207 378.028 281.45 377.8C281.82 377.43 292.81 368.2 304.26 363.94C304.565 363.826 304.89 363.774 305.216 363.786C305.541 363.798 305.861 363.874 306.157 364.009C306.454 364.145 306.72 364.337 306.942 364.576C307.164 364.815 307.336 365.095 307.45 365.4C307.564 365.705 307.616 366.03 307.604 366.356C307.592 366.681 307.516 367.001 307.381 367.297C307.245 367.594 307.053 367.86 306.814 368.082C306.575 368.304 306.295 368.476 305.99 368.59C295.59 372.42 285.06 381.18 285 381.25L284.97 381.29ZM300.77 475.49L310.91 474C311.327 473.914 311.721 473.74 312.066 473.49C312.411 473.24 312.699 472.92 312.91 472.55L317.44 463.35C317.78 462.64 318.34 462.64 318.68 463.35L323.21 472.55C323.421 472.92 323.709 473.24 324.054 473.49C324.399 473.74 324.793 473.914 325.21 474L335.38 475.48C336.13 475.6 336.32 476.13 335.77 476.67L328.41 483.84C328.117 484.153 327.897 484.527 327.766 484.935C327.635 485.343 327.595 485.775 327.65 486.2L329.38 496.34C329.52 497.1 329.05 497.43 328.38 497.05L319.29 492.27C318.902 492.087 318.479 491.993 318.05 491.993C317.621 491.993 317.198 492.087 316.81 492.27L307.77 497C307.09 497.38 306.63 497 306.77 496.29L308.52 486.15C308.566 485.724 308.52 485.293 308.386 484.885C308.251 484.478 308.031 484.105 307.74 483.79L300.39 476.62C299.83 476.1 300 475.57 300.76 475.45L300.77 475.49ZM329.13 341.97C328.488 341.855 327.917 341.491 327.542 340.957C327.168 340.423 327.02 339.763 327.13 339.12C328.02 333.68 337.3 291.12 337.59 289.65C337.659 289.332 337.79 289.03 337.976 288.762C338.161 288.494 338.398 288.265 338.672 288.089C338.945 287.913 339.251 287.792 339.572 287.734C339.893 287.675 340.222 287.681 340.54 287.75C340.859 287.819 341.16 287.95 341.428 288.135C341.696 288.321 341.925 288.558 342.101 288.831C342.277 289.105 342.398 289.411 342.456 289.732C342.515 290.053 342.509 290.382 342.44 290.7C342.36 291.06 332.91 334.6 332 339.95C331.942 340.27 331.822 340.575 331.646 340.848C331.469 341.121 331.241 341.356 330.973 341.54C330.705 341.724 330.403 341.854 330.085 341.921C329.767 341.987 329.439 341.991 329.12 341.93L329.13 341.97ZM491.13 639.53V748H433.59V653.16C435.8 653.31 440.3 653.41 440.3 653.41C458.182 653.416 475.737 648.608 491.12 639.49L491.13 639.53Z" fill="white"/>
</g>
<defs>
<clipPath id="clip0_2_2640">
<rect width="1024" height="1024" fill="white"/>
</clipPath>
</defs>
</svg>
